icons/ArrowDownLeft.svg

<svg width="24" height="24" viewBox="0 0 24 24" fill="none" xmlns="http://www.w3.org/2000/svg">
<path fill-rule="evenodd" clip-rule="evenodd" d="M5.02773,18.977c-0.41421,0 -0.75,-0.3357 -0.75,-0.75v-11.31367c0,-0.41421 0.33579,-0.75 0.75,-0.75c0.41421,0 0.75,0.33579 0.75,0.75v9.50307l11.91897,-11.91902c0.2929,-0.29289 0.7678,-0.29289 1.0607,0c0.2929,0.2929 0.2929,0.76777 0,1.06066l-11.91901,11.91896h9.50301c0.4143,0 0.75,0.3358 0.75,0.75c0,0.4143 -0.3357,0.75 -0.75,0.75z" fill="#002B51"/>
</svg>

<svg width="24" height="24" viewBox="0 0 24 24" fill="none" xmlns="http://www.w3.org/2000/svg">
<path fill-rule="evenodd" clip-rule="evenodd" d="M5.02773 18.977C4.61352 18.977 4.27773 18.6413 4.27773 18.227L4.27773 6.91333C4.27773 6.49912 4.61352 6.16333 5.02773 6.16333C5.44194 6.16333 5.77773 6.49912 5.77773 6.91333L5.77773 16.4164L17.6967 4.49738C17.9896 4.20449 18.4645 4.20449 18.7574 4.49738C19.0503 4.79028 19.0503 5.26515 18.7574 5.55804L6.83839 17.477H16.3414C16.7557 17.477 17.0914 17.8128 17.0914 18.227C17.0914 18.6413 16.7557 18.977 16.3414 18.977H5.02773Z" fill="#002B51"/>
</svg>
